img/icon_mail-black.svg

<svg width="45" height="45" viewBox="0 0 45 45" fill="none" xmlns="http://www.w3.org/2000/svg">
<path fill-rule="evenodd" clip-rule="evenodd" d="M22.5 45C10.0736 45 0 34.9264 0 22.5C0 10.0736 10.0736 0 22.5 0C34.9264 0 45 10.0736 45 22.5C45 34.9264 34.9264 45 22.5 45ZM22.8137 21.2372C24.656 21.2372 33.6137 16.2 33.6137 16.2L33.6281 15.3C33.6281 14.3064 32.8217 13.5 31.8254 13.5H13.802C12.8066 13.5 12.0002 14.3064 12.0002 15.3V16.1019C12.0002 16.1019 21.056 21.2372 22.8137 21.2372ZM12.0146 18.9001C12.0137 18.9001 21.056 23.7123 22.8137 23.7123C24.7406 23.7123 33.6137 18.9001 33.6137 18.9001L33.6281 29.7001C33.6281 30.6937 32.8217 31.5001 31.8254 31.5001H13.802C12.8075 31.5001 12.0002 30.6937 12.0002 29.7001L12.0146 18.9001Z" fill="#424242"/>
</svg>

<svg width="45" height="45" fill="none" xmlns="http://www.w3.org/2000/svg"><path fill-rule="evenodd" clip-rule="evenodd" d="M22.5 45C10.074 45 0 34.926 0 22.5S10.074 0 22.5 0 45 10.074 45 22.5 34.926 45 22.5 45zm.314-23.763c1.842 0 10.8-5.037 10.8-5.037l.014-.9a1.8 1.8 0 00-1.803-1.8H13.802c-.995 0-1.802.806-1.802 1.8v.802s9.056 5.135 10.814 5.135zm-10.8-2.337s9.042 4.812 10.8 4.812c1.927 0 10.8-4.812 10.8-4.812l.014 10.8a1.8 1.8 0 01-1.803 1.8H13.802A1.802 1.802 0 0112 29.7l.015-10.8z" fill="#424242"/></svg>
